X: 23743
T: Little Bird
R: hornpipe
M: 4/4
K: Dmajor
DE|F4F4|F2 EF AFED|B2 A2A4|A4 d3c|
B2 A2A4|AFAB F2ED|F2 E2E4|E4E2 DE|
F4F4|F2 EF AFED|B2 A2A4|A4 d3c|
B2 A2A4|AFAB F2ED|D4D4|1 D4D2 DE:|2 D3D EFAA||
B4B4|B4 d3c|B2 A2A4|A4AFAB|
F2 E2E4|E4 EDEF|D4D4|D4DEFA|
B4B4|B4 d3c|B2 A2A4|A4FEDB,|
F2 E2E4|E4 EDEF|D4D4|1 D3D EFAA:|2 D4D2 DE||

